!!!COM: MacDowell, Edward
!!!CDT: 1860/12/18/-1908/01/23/
!!!OPR: Forgotten Fairy Tales
!!!OTL: Beauty in the Rosegarden
!!!ODT: 1897///
!!!OPS: Op. 4
!!!ONM: No. 3
!!!OMD: Not fast; sweetly and simply
**kern	**kern	**dynam
*staff2	*staff1	*staff1/2
*clefF4	*clefG2	*clefG2
*k[b-]	*k[b-]	*k[b-]
*F:	*F:	*F:
*met(C)	*met(C)	*met(C)
*M4/4	*M4/4	*M4/4
*MM100	*MM100	*MM100
4r	(4c/	p
=1	=1	=1
*	*^	*
2FF/ 2C/	4f/	2A\	.
.	4g/	.	.
2F\	4a/	2c\	.
.	4b-/)	.	.
=2	=2	=2	=2
2.F\ 2.G\ 2.B-\	(4.cc/	1e	.
.	8dd/	.	.
.	2cc/)	.	.
4C/	.	.	.
=3	=3	=3	=3
2FF/ 2C/	(4f/	2A\	.
.	4g/	.	.
2F\	4a/	2c\	.
.	4cc/)	.	.
=4	=4	=4	=4
*^	*	*	*
2.A/	1D	4.dd/	2.f\	.
.	.	8ee/	.	.
.	.	2dd/	.	<
4A#\	.	.	4g\	.
*v	*v	*	*	*
*	*v	*v	*
=5	=5	=5
1GG 1Bn	2a\ (2ff\	.
.	4g\ 4ee\	.
.	4f\ 4dd\)	.
=6	=6	=6
*	*^	*
2G\ 2B-\	(4dd/	2e\	.
.	4cc/	.	.
4F#\ 4c\	4a/	4e-\	.
4G\ 4B-\	4b-/)	4d\	.
*	*v	*v	*
=7	=7	=7
*^	*	*
2A/	2.C\	2e/ (2a/	>
2B-/	.	2e/ 2g/)	.
.	4C#\	.	.
*v	*v	*	*
=8	=8	=8
*	*^	*
1D 1A	(4g/	4e\	.
.	2.f/)	4d\	.
.	.	4c#\	.
.	.	&(4cn\&)	.
=9	=9	=9	=9
1GG 1A	(4f/	1Bn	.
.	4g/	.	<
.	4a/	.	.
.	4dd/)	.	.
=10	=10	=10	=10
*^	*	*	*
2.A/	1C	(4.cc/	1f	.
.	.	8ff/	.	>
.	.	2cc/)	.	.
4A-/	.	.	.	.
*v	*v	*	*	*
=11	=11	=11	=11
1D- 1G	(4f/	1B-	.
.	4g/	.	.
.	4.a/	.	.
.	8b-/	.	.
*	*v	*v	*
=12	=12	=12
*^	*	*
(4A/	1C	1f 1cc)	<
4B-/	.	.	.
4c/	.	.	.
4f/)	.	.	.
*v	*v	*	*
*clefG2	*	*
=13	=13	=13
*	*^	*
2d/ 2f/	4r	2bn\	<
.	(4aa/	.	.
2d-/ 2f/	4bb-/	2b-\	.
.	4ff/)	.	.
=14	=14	=14	=14
*^	*	*	*
2c/ 2e/	2r	(4.ff#/	2b-\	.
.	.	8gg/	.	.
4d/	2G\	2gg/)	2b-\	>
4d#/	.	.	.	.
*v	*v	*	*	*
=15	=15	=15	=15
2G/ 2e/	(4cc/	2b-\	<
.	4dd/	.	.
4d/	2r	4b-\ 4ff\	.
4f/	.	4dd\ 4bb-\)	.
*	*v	*v	*
=16	=16	=16
*^	*	*
4.a/	1c	4.ff\ (4.ccc\	>
8b-/	.	[8ff\ 8ddd\ 8fff\	.
2a/	.	2ff\] 2ccc\)	.
*v	*v	*	*
*clefF4	*	*
=17	=17	=17
*	*^	*
1GG 1D	(2f/	1Bn	p
.	4a/	.	.
.	4dd/)	.	.
*	*v	*v	*
=18	=18	=18
4.C\ 4.A\	4.f/ (4.cc/	>
*clefG2	*	*
[8c/ 8b-/	[8f\ 8dd\ 8ff\	.
2c/] 2a/	2f/] 2cc/)	.
*clefF4	*	*
=19	=19	=19
*	*^	*
1C	(2f/	1B- 1e#	<
.	2g/	.	.
=20	=20	=20	=20
1FF 1C	2.b-/	4d\	>
.	.	4d-\	.
.	.	&(2c\&)	.
.	4a/)	.	.
*	*v	*v	*
=21	=21	=21
(2A\	4r	.
.	4d/ 4f/ 4a/	.
2d\	4r	.
.	4d/ 4f/ 4a/	.
=22	=22	=22
1A-)	4r	.
.	4d/ 4f/ 4b-/	.
.	4f/ 4b-/ 4dd/	.
.	4f\ 4b-\ 4dd\ 4ff\	.
=23	=23	=23
(4G\	4r	<
4B-\	4e/ 4b-/ 4dd/ 4ee/	.
4.d\)	4r	.
.	4f\ 4b-\ 4dd\ 4ff\	.
8g\	.	.
=24	=24	=24
(2f\	4r	>
.	4g\ 4b-\ 4dd\ 4gg\	.
4.e\)	4r	.
.	4g#\ 4dd\ 4ee\ 4gg#\	.
8d\	.	.
=25	=25	=25
2c#\	4b-\ 4ee\ 4ggn\ 4bb-\	<
.	4a\ 4ee\ 4gg\ 4aa\	.
!(c#q/LLL	!	!
!dq/	!	!
!eq/JJJ	!	!
(4f\)	2g\ 2b-\ 2dd\ 2gg\	.
4e\)	.	.
=26	=26	=26
(4d\	4g\ 4b-\ 4ff\	.
4c#\	4g\ 4b-\ 4ee\	.
4B-\	4e/ 4g/ 4dd/	.
4A\)	4e/ 4g/ 4cc#/	.
=27	=27	=27
4..G\	4..d/ 4..e/ 4..b-/	f
16GG/ 16D/	16B-/ 16d/ 16e/	.
2GG/ 2D/	2B-/ 2d/ 2e/	.
=28	=28	=28
1GGG# 1GG#	4r	.
.	4F/ 4d/ 4f/	>
.	4F/ 4Bn/ 4e/	.
.	4F/ 4B/ 4d/	.
=29	=29	=29
2AAA/ (2AA/	4r	.
.	4F/ 4d/ 4f/	.
2DD/ 2D/	4F/ 4A/ 4e/	.
.	4F/ 4A/ 4d/	.
=30	=30	=30
1AAA- 1AA-)	4r	.
.	4F/ 4B-/ 4d/ 4f/	.
.	4F/ 4B-/ 4e/	.
.	4F/ 4B-/ 4d/	.
=31	=31	=31
4GGG/ (4GG/	4r	.
4BBB-/ 4BB-/	4F/ 4G/ 4d/ 4f/	<
4.DD/ 4.D/	4G/ 4B-/ 4e/	.
.	4G/ 4B-/ 4d/	.
8GG\ 8G\)	.	.
=32	=32	=32
2FF/ (2F/	4r	.
.	4B-/ 4d/ 4a/	.
4.EE/ 4.E/)	4G/ 4B-/ 4d/ 4g/	.
.	4G#/ 4d/ 4e/ 4g#/	.
8DD/ 8D/	.	.
=33	=33	=33
2CC#/ 2C#/	4r	.
.	4B-/ 4e/ 4g/ 4b-/	f
!C#q/LLL	!	!
!Dq/	!	!
!Eq/JJJ	!	!
4FF/ 4F/	4A/ 4c#/ 4a/	.
4EE/ 4E/	4G/ 4A/ 4c#/ 4g/	.
=34	=34	=34
4DD/ 4D/	4F/ 4A/ 4f/	.
*	*clefF4	*clefF4
4CCn/ 4Cn/	4E\ 4F\ 4A\ 4e\	.
4BBB-/ 4BB-/	4D\ 4F\ 4d\	.
4AAA/ 4AA/	4C\ 4F\ 4c\	.
=35	=35	=35
4FFF#/ 4GG#/	4D\ 4F\ 4B-\	>
4r	4r	.
4AAA/ 4AA/	4D\ 4F\ 4A\	.
4r	4r	.
=36	=36	=36
4EEE/ 4EE/	4BB-\ 4D\ 4G\	.
4r	4r	.
4FFF/ 4FF/	4AA/ 4D/ 4F/	.
4r	4r	.
=37	=37	=37
4BBBB-/ 4BBB-/	4GG/ 4D/ 4E/	p
4r	4r	.
2r	2r	.
=38	=38	=38
4AAA/	4AA/ 4C#/ 4E/	pp
4r	4r	.
[2A\	2r	.
*	*clefG2	*clefG2
=39	=39	=39
*^	*^	*
2A/]	2D\	4r	2f\	.
.	.	(4ff/	.	>
2G#/	2BBn\	4ee/	2f\	.
.	.	4dd/)	.	.
=40	=40	=40	=40	=40
2A/	2C\	4r	2f\	.
.	.	(4dd-/	.	.
2r	2G\ 2d-\	4cc/	2f\	.
.	.	4b-/)	.	.
*	*	*v	*v	*
=41	=41	=41	=41
(4F/	1BB-	1d- 1f	.
4G/	.	.	.
4A/	.	.	.
4B-/)	.	.	.
*v	*v	*	*
=42	=42	=42
*	*^	*
2.GG/ 2.C/	1e	4.c\	.
.	.	8d\	.
.	.	2c\	.
4C/	.	.	.
=43	=43	=43	=43
1FF 1C	(4f/	1A	pp
.	4g/	.	.
.	4a/	.	.
.	4b-/)	.	.
=44	=44	=44	=44
2.F\ 2.G\ 2.B-\	(4.cc/	1e	.
.	8dd/	.	.
.	2cc/)	.	.
4C/	.	.	.
=45	=45	=45	=45
*^	*	*	*
2C/	1FF	(4f/	2A\	.
.	.	4g/	.	.
2F/	.	4a/	2c\	.
.	.	4cc/)	.	.
=46	=46	=46	=46	=46
2.A/	1D	(4.dd/	2.f\	.
.	.	8ee/	.	.
.	.	2dd/)	.	.
4A#/	.	.	4g\	.
*v	*v	*	*	*
=47	=47	=47	=47
1GG 1Bn	4r	2a-\	.
.	(4ff/	.	.
.	4ee/	4g\	.
.	[4dd/	4f\	.
=48	=48	=48	=48
2G\ 2B-\	4dd/]	2e\	.
.	4cc/	.	.
4F#\ 4c\	4a/	4e-\	.
4G\ 4B-\	4b-/)	4d\	.
=49	=49	=49	=49
*^	*	*	*
2A/	1C	(2a/	2en\	.
[2B-/	.	2f#/	[2e\	.
=50	=50	=50	=50	=50
2.B-/]	2.C\	2.g/)	4e\]	.
.	.	.	4d\	.
.	.	.	2c\	.
4C/	4r	4r	.	.
*v	*v	*	*	*
=51	=51	=51	=51
[1FF 1D	(4f/	1B-	pp
.	4g/	.	<
.	4a/	.	.
.	4b-/)	.	.
=52	=52	=52	=52
*^	*	*	*
(2.A/	1FF_ 1C	4.cc/	1f	.
.	.	8ff/	.	>
.	.	2cc/	.	.
4A-/	.	.	.	.
*v	*v	*	*	*
=53	=53	=53	=53
1FF_ 1D- 1G)	4f/	1B-	.
.	4g/	.	.
.	4.a/	.	.
.	8b-/	.	.
*	*v	*v	*
=54	=54	=54
*^	*	*
(4A/	1FF] 1C	1f &(1cc&)	<
4B-/	.	.	.
4c/	.	.	.
4f/)	.	.	.
*v	*v	*	*
*clefG2	*	*
=55	=55	=55
*	*^	*
2d/ 2f/	4r	2bn\	<
.	(4aa/	.	.
2d-/ 2f/	4bb-/	2b-\	.
.	4ff/)	.	>
=56	=56	=56	=56
*^	*	*	*
2c/ (2e/	2r	(4.ff#/	2b-\	.
.	.	8gg/	.	.
4d/	2G\	2gg/)	2b-\	.
4d#/)	.	.	.	.
*v	*v	*	*	*
=57	=57	=57	=57
2G/ 2e/	(4cc/	2b-\	p
.	4dd/	.	.
4d/	2r	4b-\ 4ff\	>
4f/	.	4dd\ 4bb-\	.
*	*v	*v	*
=58	=58	=58
4b-\	4ff\ 4ddd\	.
4dd\	4bb-\ 4fff\	.
4ff\	4ddd\ 4bbb-\	pp
&(4bb-\&)	4fff\) 4dddd\	.
*clefF4	*	*
=59	=59	=59
*	*^	*
1C 1A	(2a/	1e	.
.	2cc/	.	.
*	*v	*v	*
=60	=60	=60
1C 1B-	1e 1g)	.
=61	=61	=61
[1FF 1D	(4f/	.
.	4g/	.
.	4.a/	.
.	8b-/	.
=62	=62	=62
*	*^	*
1FF] 1C 1A	2cc/)	1f	.
.	2ff/	.	.
*clefG2	*	*	*
*	*v	*v	*
=63	=63	=63
1ff 1aa	1ccc 1fff	.
==	==	==
*-	*-	*-
!!!ENC: Craig Stuart Sapp
!!!END: 2008/07/13/
